assets/Person white hair/Default/Flat/person_white_hair_flat_default.svg

<svg width="32" height="32" viewBox="0 0 32 32" fill="none" xmlns="http://www.w3.org/2000/svg">
<path d="M26.8731 8.41172C26.355 7.48594 25.5356 6.83982 24.6219 6.52158C23.6235 6.17442 22.7663 5.50902 22.22 4.59288C21.4947 3.3778 20.1854 2.55811 18.6878 2.55811C18.1132 2.55811 17.5669 2.68348 17.0677 2.89563C16.3895 3.19458 15.6265 3.19458 14.9483 2.89563C14.4397 2.68348 13.8934 2.55811 13.3188 2.55811C11.84 2.55811 10.5496 3.34888 9.81486 4.53503C9.24029 5.47045 8.37372 6.16478 7.35644 6.53124C6.4051 6.86876 5.56679 7.56308 5.04873 8.55636C4.30461 9.99324 4.45532 11.6905 5.30305 12.9538C5.61389 13.4167 5.78343 13.9664 5.78343 14.5257C5.78343 16.742 5.87048 19.2205 5.76002 21.8314C5.76002 23.4372 6.70501 24.8678 8.1414 25.4614C13.3188 25.4614 17.0677 25.4614 23.8585 25.4614C25.2949 24.8678 26.2398 23.4372 26.2398 21.8314C26.2398 19.3763 26.2043 16.9474 26.2043 14.5257C26.2043 13.9664 26.3739 13.4167 26.6847 12.9538C27.5795 11.6519 27.702 9.88717 26.8731 8.41172Z" fill="#F3EEF8"/>
<path fill-rule="evenodd" clip-rule="evenodd" d="M26.5455 8.56439L26.5447 8.56293C26.1274 7.82629 25.4669 7.31046 24.7261 7.0556C23.4739 6.62541 22.3779 5.79301 21.6738 4.62683C21.0824 3.64848 20.0229 3 18.8217 3C18.3657 3 17.9252 3.09767 17.5133 3.26985C16.5518 3.68623 15.4688 3.68672 14.5071 3.27132C14.0813 3.09692 13.6395 3 13.1853 3C11.9971 3 10.954 3.62549 10.3549 4.57984C9.62935 5.74575 8.53657 6.60833 7.26117 7.06215L7.25667 7.06375L7.25667 7.06374C6.49055 7.33222 5.81153 7.88482 5.38827 8.68561C4.78645 9.83466 4.90599 11.2003 5.59744 12.2181C6.03464 12.8613 6.27457 13.6265 6.27457 14.41C6.27457 15.071 6.28248 15.765 6.29067 16.4848C6.31031 18.2093 6.33164 20.0822 6.25006 22.0056C6.25749 23.1998 6.93468 24.2553 7.96112 24.75H24.0389C25.071 24.2525 25.75 23.1881 25.75 21.9858C25.75 20.7172 25.7407 19.4547 25.7314 18.1923L25.7313 18.177C25.722 16.921 25.7127 15.6649 25.7127 14.41C25.7127 13.6264 25.9527 12.8611 26.39 12.2178L26.3961 12.2088L26.3962 12.2088C27.1196 11.1693 27.2218 9.75345 26.5455 8.56439ZM24.25 25.75H7.75C6.24206 25.1344 5.25 23.6509 5.25 21.9858C5.33151 20.0826 5.31057 18.2473 5.29093 16.5265C5.28264 15.7994 5.27457 15.0927 5.27457 14.41C5.27457 13.83 5.09658 13.26 4.77026 12.78C3.8803 11.47 3.72209 9.71 4.50328 8.22C5.04714 7.19 5.92721 6.47001 6.92594 6.12001C7.99389 5.74001 8.90363 5.02 9.50683 4.05C10.2781 2.82 11.6328 2 13.1853 2C13.7885 2 14.3621 2.13001 14.896 2.35001C15.608 2.66001 16.409 2.66001 17.1209 2.35001C17.645 2.13001 18.2185 2 18.8217 2C20.394 2 21.7685 2.85 22.5299 4.11C23.1034 5.06 24.0033 5.75 25.0515 6.11C26.0106 6.44 26.8709 7.11001 27.4148 8.07001C28.285 9.60001 28.1564 11.43 27.217 12.78C26.8907 13.26 26.7127 13.83 26.7127 14.41C26.7127 15.6613 26.722 16.9145 26.7313 18.172C26.7406 19.4381 26.75 20.7085 26.75 21.9858C26.75 23.6509 25.7579 25.1344 24.25 25.75Z" fill="#E1D8EC"/>
<path d="M10 18C10 19.6569 8.65685 21 7 21C5.34315 21 4 19.6569 4 18C4 16.3431 5.34315 15 7 15C8.65685 15 10 16.3431 10 18Z" fill="#FDBB11"/>
<path d="M28 18C28 19.6569 26.6569 21 25 21C23.3431 21 22 19.6569 22 18C22 16.3431 23.3431 15 25 15C26.6569 15 28 16.3431 28 18Z" fill="#FDBB11"/>
<path d="M6.44092 15.0413L7.0042 23.65C7.48384 27.29 10.5815 30 14.2487 30H17.7661C21.4333 30 24.531 27.29 25.0106 23.65L25.5489 15.055C25.5326 15.0519 25.5162 15.0488 25.4999 15.046L25.615 13.13C25.5952 11.7 24.4679 10.52 23.044 10.46H20.4334C18.6535 10.46 17.0417 9.40999 16.3099 7.76999C16.1221 7.29999 15.6672 6.98999 15.1629 6.98999H12.7897C9.34849 6.98999 6.49988 9.80999 6.49988 13.29V15.032C6.48006 15.0349 6.46041 15.038 6.44092 15.0413Z" fill="#FFC83D"/>
<path d="M15.2872 17.5266L14.2963 20.6961C14.0941 21.348 14.5794 22 15.2669 22H16.7331C17.4206 22 17.9059 21.338 17.7037 20.6961L16.7128 17.5266C16.5005 16.8245 15.5096 16.8245 15.2872 17.5266Z" fill="#ED9200"/>
<path d="M16 23.8954C15.0538 23.8954 14.1644 23.6727 13.417 23.2831C13.1615 23.1532 12.8871 23.4408 13.048 23.6727C13.6724 24.6191 14.7605 25.25 16 25.25C17.2395 25.25 18.3276 24.6191 18.952 23.6727C19.1129 23.4315 18.8385 23.1532 18.583 23.2831C17.8356 23.6727 16.9556 23.8954 16 23.8954Z" fill="#990839"/>
<path d="M9.01481 17.3673C9.30113 16.2403 10.3279 15.4 11.5423 15.4C12.8061 15.4 13.8625 16.2996 14.0994 17.4958C14.1488 17.7628 13.9415 18 13.6749 18H9.51834C9.18266 18 8.93583 17.6936 9.01481 17.3673Z" fill="white"/>
<path d="M22.9852 17.3673C22.6989 16.2403 21.6721 15.4 20.4577 15.4C19.1841 15.4 18.1375 16.2996 17.9006 17.4958C17.8512 17.7628 18.0585 18 18.3251 18H22.4817C22.8173 18 23.0642 17.6936 22.9852 17.3673Z" fill="white"/>
<path d="M10.2588 17.5568C10.2588 16.6311 11.0091 15.8925 11.9273 15.8925C12.8455 15.8925 13.586 16.6311 13.586 17.5568C13.586 17.7144 13.5663 17.8622 13.5268 18H10.318C10.2785 17.8523 10.2588 17.7144 10.2588 17.5568Z" fill="#7D4533"/>
<path d="M21.7412 17.5568C21.7412 16.6311 20.9908 15.8925 20.0726 15.8925C19.1544 15.8925 18.4041 16.6311 18.4139 17.5568C18.4139 17.7144 18.4337 17.8622 18.4732 18H21.6819C21.7214 17.8523 21.7412 17.7144 21.7412 17.5568Z" fill="#7D4533"/>
<path d="M11.9273 16.6113C12.4506 16.6113 12.8751 17.0348 12.8751 17.5568C12.8751 17.7144 12.8356 17.8621 12.7665 18H11.0881C11.019 17.8621 10.9795 17.7144 10.9795 17.5568C10.9795 17.0348 11.404 16.6113 11.9273 16.6113Z" fill="black"/>
<path d="M20.0627 16.6113C19.5394 16.6113 19.1149 17.0348 19.1149 17.5568C19.1149 17.7144 19.1544 17.8621 19.2235 18H20.9019C20.971 17.8621 21.0105 17.7144 21.0105 17.5568C21.0105 17.0348 20.586 16.6113 20.0627 16.6113Z" fill="black"/>
<path d="M11.651 16.92C11.651 17.0857 11.5184 17.22 11.3548 17.22C11.1912 17.22 11.0586 17.0857 11.0586 16.92C11.0586 16.7543 11.1912 16.62 11.3548 16.62C11.5184 16.62 11.651 16.7543 11.651 16.92Z" fill="white"/>
<path d="M19.8456 16.92C19.8456 17.0857 19.713 17.22 19.5494 17.22C19.3858 17.22 19.2532 17.0857 19.2532 16.92C19.2532 16.7543 19.3858 16.62 19.5494 16.62C19.713 16.62 19.8456 16.7543 19.8456 16.92Z" fill="white"/>
<path d="M21.6779 12.1726C22.2532 12.3537 22.6331 12.6551 22.9597 12.9396C23.1751 13.1272 23.1976 13.4538 23.01 13.6691C22.8225 13.8844 22.4959 13.907 22.2806 13.7194C21.9872 13.4639 21.7371 13.2753 21.3674 13.159C20.9896 13.04 20.44 12.983 19.5429 13.0927C19.2595 13.1274 19.0016 12.9258 18.9669 12.6423C18.9322 12.3589 19.1339 12.101 19.4174 12.0663C20.4003 11.9461 21.1107 11.994 21.6779 12.1726Z" fill="#F3EEF8"/>
<path d="M10.356 12.3871C10.0507 12.5071 9.8089 12.6358 9.64087 12.7363L9.36272 12.9214C9.13732 13.0967 9.09671 13.4216 9.27203 13.647C9.44688 13.8718 9.77054 13.9127 9.99588 13.739L10.001 13.7352C10.0068 13.7309 10.0172 13.7234 10.0319 13.7132C10.0615 13.6928 10.1086 13.6616 10.1719 13.6236C10.2989 13.5477 10.4897 13.4457 10.7344 13.3495C11.2239 13.157 11.9214 12.9905 12.7574 13.0927C13.0408 13.1274 13.2987 12.9258 13.3334 12.6423C13.3681 12.3589 13.1664 12.101 12.8829 12.0663C11.839 11.9386 10.9665 12.147 10.356 12.3871Z" fill="#F3EEF8"/>
</svg>

<svg xmlns="http://www.w3.org/2000/svg" width="32" height="32" fill="none"><path fill="#F3EEF8" d="M26.873 8.412a4.135 4.135 0 0 0-2.251-1.89 4.489 4.489 0 0 1-2.402-1.93c-.725-1.214-2.035-2.034-3.532-2.034-.575 0-1.121.125-1.62.338a2.616 2.616 0 0 1-2.12 0 4.215 4.215 0 0 0-1.63-.338c-1.478 0-2.768.79-3.503 1.977a4.773 4.773 0 0 1-2.459 1.996A4.179 4.179 0 0 0 5.05 8.556a4.343 4.343 0 0 0 .254 4.398c.31.463.48 1.012.48 1.572 0 2.216.087 4.695-.023 7.305 0 1.606.945 3.037 2.381 3.63h15.717c1.437-.593 2.382-2.024 2.382-3.63 0-2.455-.036-4.884-.036-7.305 0-.56.17-1.11.48-1.572a4.307 4.307 0 0 0 .19-4.542Z"/><path fill="#E1D8EC" fill-rule="evenodd" d="m26.546 8.564-.001-.001a3.328 3.328 0 0 0-1.819-1.507c-1.252-.43-2.348-1.263-3.052-2.43A3.335 3.335 0 0 0 18.822 3c-.456 0-.897.098-1.309.27a3.778 3.778 0 0 1-3.006.001A3.47 3.47 0 0 0 13.185 3a3.336 3.336 0 0 0-2.83 1.58A5.999 5.999 0 0 1 7.26 7.062l-.004.002a3.37 3.37 0 0 0-1.869 1.622 3.457 3.457 0 0 0 .21 3.532c.437.643.677 1.409.677 2.192 0 .661.007 1.355.016 2.075.02 1.724.04 3.597-.04 5.52a3.055 3.055 0 0 0 1.71 2.745H24.04a3.055 3.055 0 0 0 1.711-2.764c0-1.269-.01-2.531-.019-3.794v-.015a508.93 508.93 0 0 1-.018-3.767c0-.784.24-1.549.677-2.192l.006-.01a3.42 3.42 0 0 0 .15-3.644ZM24.25 25.75H7.75c-1.508-.616-2.5-2.1-2.5-3.764.082-1.903.06-3.739.04-5.46-.007-.727-.015-1.433-.015-2.116 0-.58-.178-1.15-.505-1.63a4.457 4.457 0 0 1-.267-4.56 4.37 4.37 0 0 1 2.423-2.1 4.999 4.999 0 0 0 2.58-2.07A4.335 4.335 0 0 1 13.187 2c.603 0 1.176.13 1.71.35.712.31 1.513.31 2.225 0a4.385 4.385 0 0 1 1.7-.35c1.573 0 2.947.85 3.709 2.11.573.95 1.473 1.64 2.521 2 .96.33 1.82 1 2.364 1.96a4.42 4.42 0 0 1-.198 4.71 2.907 2.907 0 0 0-.504 1.63c0 1.251.009 2.505.018 3.762.01 1.266.019 2.537.019 3.814 0 1.665-.992 3.148-2.5 3.764Z" clip-rule="evenodd"/><path fill="#FDBB11" d="M10 18a3 3 0 1 1-6 0 3 3 0 0 1 6 0ZM28 18a3 3 0 1 1-6 0 3 3 0 0 1 6 0Z"/><path fill="#FFC83D" d="m6.44 15.041.564 8.609A7.3 7.3 0 0 0 14.25 30h3.517a7.3 7.3 0 0 0 7.245-6.35l.538-8.595a2.804 2.804 0 0 0-.05-.009l.116-1.916c-.02-1.43-1.147-2.61-2.571-2.67h-2.61a4.516 4.516 0 0 1-4.124-2.69 1.238 1.238 0 0 0-1.147-.78H12.79c-3.442 0-6.29 2.82-6.29 6.3v1.742a2.66 2.66 0 0 0-.06.01Z"/><path fill="#ED9200" d="m15.287 17.527-.99 3.17a1.005 1.005 0 0 0 .97 1.303h1.466c.688 0 1.173-.662.97-1.304l-.99-3.17c-.213-.701-1.203-.701-1.426 0Z"/><path fill="#990839" d="M16 23.895a5.603 5.603 0 0 1-2.583-.612c-.255-.13-.53.158-.369.39A3.53 3.53 0 0 0 16 25.25a3.53 3.53 0 0 0 2.952-1.577c.16-.241-.114-.52-.369-.39a5.574 5.574 0 0 1-2.583.612Z"/><path fill="#fff" d="M9.015 17.367a2.607 2.607 0 0 1 5.085.128.428.428 0 0 1-.425.505H9.518a.512.512 0 0 1-.503-.633ZM22.985 17.367a2.617 2.617 0 0 0-2.527-1.967 2.6 2.6 0 0 0-2.557 2.096.428.428 0 0 0 .424.504h4.157a.512.512 0 0 0 .503-.633Z"/><path fill="#7D4533" d="M10.259 17.557a1.664 1.664 0 1 1 3.268.443h-3.209a1.655 1.655 0 0 1-.06-.443ZM21.741 17.557c0-.926-.75-1.664-1.668-1.664a1.65 1.65 0 0 0-1.66 1.664c0 .157.02.305.06.443h3.209c.04-.148.06-.286.06-.443Z"/><path fill="#000" d="M11.927 16.611a.947.947 0 0 1 .84 1.389h-1.679a.947.947 0 0 1 .84-1.389ZM20.063 16.611a.947.947 0 0 0-.84 1.389h1.679a.947.947 0 0 0-.84-1.389Z"/><path fill="#fff" d="M11.651 16.92c0 .166-.133.3-.296.3a.298.298 0 0 1-.296-.3c0-.166.132-.3.296-.3.163 0 .296.134.296.3ZM19.846 16.92c0 .166-.133.3-.297.3a.298.298 0 0 1-.296-.3c0-.166.133-.3.296-.3.164 0 .297.134.297.3Z"/><path fill="#F3EEF8" d="M21.678 12.173c.575.18.955.482 1.282.767a.517.517 0 1 1-.68.78c-.293-.256-.543-.445-.913-.561-.377-.119-.927-.176-1.824-.066a.517.517 0 1 1-.126-1.027c.983-.12 1.694-.072 2.26.107ZM10.356 12.387c-.305.12-.547.249-.715.35l-.278.184a.517.517 0 0 0 .633.818l.005-.004.03-.022.14-.09a4.138 4.138 0 0 1 2.585-.53.517.517 0 1 0 .127-1.027 5.17 5.17 0 0 0-2.527.321Z"/></svg>
